docs/icons/svg/download.svg

<svg width="24" height="24" viewBox="0 0 24 24" fill="none" xmlns="http://www.w3.org/2000/svg">
<path d="M12 16.575C11.8667 16.575 11.7417 16.5542 11.625 16.5125C11.5083 16.4708 11.4 16.4 11.3 16.3L6.7 11.7C6.51667 11.5167 6.425 11.2833 6.425 11C6.425 10.7167 6.51667 10.4833 6.7 10.3C6.88333 10.1167 7.12083 10.0208 7.4125 10.0125C7.70417 10.0042 7.94167 10.0917 8.125 10.275L11 13.15V4C11 3.71667 11.0958 3.47917 11.2875 3.2875C11.4792 3.09583 11.7167 3 12 3C12.2833 3 12.5208 3.09583 12.7125 3.2875C12.9042 3.47917 13 3.71667 13 4V13.15L15.875 10.275C16.0583 10.0917 16.2958 10.0042 16.5875 10.0125C16.8792 10.0208 17.1167 10.1167 17.3 10.3C17.4833 10.4833 17.575 10.7167 17.575 11C17.575 11.2833 17.4833 11.5167 17.3 11.7L12.7 16.3C12.6 16.4 12.4917 16.4708 12.375 16.5125C12.2583 16.5542 12.1333 16.575 12 16.575ZM5 21C4.45 21 3.97917 20.8042 3.5875 20.4125C3.19583 20.0208 3 19.55 3 19V17C3 16.7167 3.09583 16.4792 3.2875 16.2875C3.47917 16.0958 3.71667 16 4 16C4.28333 16 4.52083 16.0958 4.7125 16.2875C4.90417 16.4792 5 16.7167 5 17V19H19V17C19 16.7167 19.0958 16.4792 19.2875 16.2875C19.4792 16.0958 19.7167 16 20 16C20.2833 16 20.5208 16.0958 20.7125 16.2875C20.9042 16.4792 21 16.7167 21 17V19C21 19.55 20.8042 20.0208 20.4125 20.4125C20.0208 20.8042 19.55 21 19 21H5Z" fill="currentColor"/>
</svg>

<svg width="24" height="24" viewBox="0 0 24 24" fill="none" xmlns="http://www.w3.org/2000/svg">
<path d="M12 16.575c-.133 0-.258-.02-.375-.063a.877.877 0 0 1-.325-.212l-4.6-4.6a.948.948 0 0 1-.275-.7c0-.283.092-.517.275-.7.183-.183.42-.28.712-.288.292-.008.53.08.713.263L11 13.15V4c0-.283.096-.52.287-.712A.968.968 0 0 1 12 3c.283 0 .52.096.713.288.191.191.287.429.287.712v9.15l2.875-2.875c.183-.183.42-.27.712-.263.292.009.53.105.713.288a.948.948 0 0 1 .275.7.948.948 0 0 1-.275.7l-4.6 4.6c-.1.1-.208.17-.325.212a1.106 1.106 0 0 1-.375.063ZM5 21c-.55 0-1.02-.196-1.413-.587A1.926 1.926 0 0 1 3 19v-2c0-.283.096-.52.288-.712A.967.967 0 0 1 4 16c.283 0 .52.096.713.288.191.191.287.429.287.712v2h14v-2c0-.283.096-.52.288-.712A.968.968 0 0 1 20 16c.283 0 .52.096.712.288.192.191.288.429.288.712v2c0 .55-.196 1.02-.587 1.413A1.926 1.926 0 0 1 19 21H5Z" fill="currentColor"/>
</svg>
